_theme_options/iconsets/posicion/updown.svg

<svg height="64" viewBox="0 0 64 64" width="64" xmlns="http://www.w3.org/2000/svg"><g stroke="#fff" stroke-linejoin="round"><path d="m22 23.5v-17.5a4 4 90 0 1 4-4h12a4 4 90 0 1 4 4v17.5" fill="none" stroke-width="3"/><path d="m40.5 22h17.5a4 4 90 0 1 4 4v12a4 4 90 0 1 -4 4h-17.5" fill="none" stroke-width="3"/><path d="m22 40.5v17.5a4 4 90 0 0 4 4h12a4 4 90 0 0 4-4v-17.5" fill="none" stroke-width="3"/><path d="m23.5 22h-17.5a4 4 90 0 0 -4 4v12a4 4 90 0 0 4 4h17.5" fill="none" stroke-width="3"/><g stroke-width="2"><path d="m27 14h10l-5-7.8z" fill="#fff"/><path d="m50 27v10l7.8-5z" fill="none"/><path d="m27 50h10l-5 7.8z" fill="#fff"/><path d="m14 27v10l-7.8-5z" fill="none"/><circle cx="32" cy="32" fill="none" r="5"/></g></g></svg>

<?xml version="1.0" encoding="UTF-8"?>
<svg width="64" height="64" version="1.1" viewBox="0 0 64 64" xmlns="http://www.w3.org/2000/svg">
 <path id="outline_up" d="M22,23.5 L22,6 A4,4 90 0,1 26,2 L38,2 A4,4 90 0,1 42,6 L42,23.5"  fill="none" stroke="#fff" stroke-linejoin="round" stroke-width="3"/>
 <path id="outline_right" d="M40.5,22 L58,22 A4,4 90 0,1 62,26 L62,38 A4,4 90 0,1 58,42 L40.5,42" fill="none" stroke="#fff" stroke-linejoin="round" stroke-width="3"/>
 <path id="outline_down" d="M22,40.5 L22,58 A4,4 90 0,0 26,62 L38,62 A4,4 90 0,0 42,58 L42,40.5"  fill="none" stroke="#fff" stroke-linejoin="round" stroke-width="3"/>
 <path id="outline_left" d="M23.5,22 L6,22 A4,4 90 0,0 2,26 L2,38 A4,4 90 0,0 6,42 L23.5,42" fill="none" stroke="#fff" stroke-linejoin="round" stroke-width="3"/>
 <polygon id="dpad_up" points="27,14 37,14 32,6.2" fill="#fff" stroke="#fff" stroke-linejoin="round" stroke-width="2"/>
 <polygon id="dpad_right" points="50,27 50,37 57.8,32" fill="none" stroke="#fff" stroke-linejoin="round" stroke-width="2"/>
 <polygon id="dpad_down" points="27,50 37,50 32,57.8" fill="#fff" stroke="#fff" stroke-linejoin="round" stroke-width="2"/>
 <polygon id="dpad_left" points="14,27 14,37 6.2,32" fill="none" stroke="#fff" stroke-linejoin="round" stroke-width="2"/>
 <circle id="dpad_thumb" cx="32" cy="32" r="5" fill="none" stroke="#fff" stroke-linejoin="round" stroke-width="2"/>
</svg>
